!!!OTL: HEIJO WOERN WIE DO
!!!ARE: Europa, Mitteleuropa, Deutschland, Ruhr - Gegend; Mosel - Gegend
!!!SCT: E1812
!!!YEM: Copyright 1995, estate of Helmut Schaffrath.
**kern
*ICvox
*Ivox
*M2/4
*k[b-]
*F:
=1
{4cc
4a
=2
8cc
8cc
4a}
=3
{8f
8f
16g
16g
8g
=4
4a
8g
8r}
=5
{8f
8f
16g
16g
8g
=6
4a
8g
8r}
=7
{8a
8a
8g
8f
=8
8a
8a
4a}
=9
{8g
8g
16g
16g
8a
=10
8f
8f
8f
8r}
==
!!!AGN: Kinder -, Wiegen -, Schlaf - Lied
!!!ONB: ESAC (Essen Associative Code) Database: ERK3
!!!AMT: simple duple
!!!AIN: vox
!!!EED: Helmut Schaffrath
!!!EEV: 1.0
*-
